icon-themes/sifr_svg/cmd/ru/lc_underline.svg

<svg viewBox="0 0 24 24" xmlns="http://www.w3.org/2000/svg"><path d="m5 2v5.9453125c0 1.361963.277693 2.4354265.8339844 3.2207035.5562914.785276 1.3170116 1.337231 2.28125 1.65625.9766004.306748 2.1140966.410659 3.4121096.3125 1.310375-.09816 2.713178-.343691 4.208984-.736328v7.601562h3.263672v-18h-3.263672v8.134766c-1.223841.294478-2.304627.484422-3.24414.570312-.927153.073619-1.707427.018034-2.337891-.166016-.6181019-.196318-1.0867906-.538499-1.4082032-1.0292964-.3214129-.5030676-.4824219-1.184073-.4824219-2.0429687v-5.4667969zm-3 19v2h20v-2z" fill="#555753"/></svg>

<svg xmlns="http://www.w3.org/2000/svg" viewBox="0 0 24 24">
  <path
     style="fill:#555753"
     d="M 5 2 L 5 7.9453125 C 5 9.3072755 5.277693 10.380739 5.8339844 11.166016 C 6.3902758 11.951292 7.150996 12.503247 8.1152344 12.822266 C 9.0918348 13.129014 10.229331 13.232925 11.527344 13.134766 C 12.837719 13.036606 14.240522 12.791075 15.736328 12.398438 L 15.736328 20 L 19 20 L 19 2 L 15.736328 2 L 15.736328 10.134766 C 14.512487 10.429244 13.431701 10.619188 12.492188 10.705078 C 11.565035 10.778697 10.784761 10.723112 10.154297 10.539062 C 9.5361951 10.342744 9.0675064 10.000563 8.7460938 9.5097656 C 8.4246809 9.006698 8.2636719 8.3256926 8.2636719 7.4667969 L 8.2636719 2 L 5 2 z M 2 21 L 2 23 L 22 23 L 22 21 L 2 21 z "
     />
</svg>
